X:1
T:Title
%%score { ( 1 4 ) | ( 2 3 ) }
L:1/8
Q:1/4=120
M:4/4
K:F
V:1 treble nm="Church Organ"
V:4 treble 
V:2 bass 
V:3 bass 
V:1
 [CF]2 [CA]2 .[CG]2[K:bass] [E,C]2 | [F,CF]2[K:treble] [CA]2 .[CG]2 [E,C]2 | c4 z4 | B2 z2 z4 | %4
w: DEVICE=GENERAL.MDV * * *||||
 c2 c2 c2 BA | z4 z2 .A2 | z4 z2 .[GB]2 | G4 z4 |] %8
w: ||||
V:2
 [F,A,]2 [A,,F,]2 z CC,B,, | z4 [C,F,]2 z2 | A,4 z2 C2 | .[G,B,D]2 A,B, .C2 B,2 | %4
 [A,CE]2 [G,B,E]2 [^F,A,D]2 [D,=F,D]2 | [G,D]2 [F,G,D]2 [E,G,C]2 [C,C]2 | %6
 [CF]2[K:treble] [CF]2[K:bass] z4 | B,,2 [C,C]2 [F,A,]4 |] %8
V:3
 z4 [C,F,]2 z2 | A,,2 [F,,F,]2 z CC,B,, | A,,2 B,,[C,G,] [D,F,]2 E,[F,F] | x8 | x8 | x8 | %6
 F,G,[K:treble]A,B,[K:bass] A,2 E,F, | x8 |] %8
V:4
 x6[K:bass] x2 | x2[K:treble] x6 | C2 D[EB] [FA]2 GA | z E [CFA]2 [EG]4 | x8 | B2 B2 B2 E-[EG] | %6
 ABcd [CFc]2 C-[CFA] | [DF]2 EF F4 |] %8

